X: 3
T:Belle qui tiens va vie - Superius
T:Fair one who holds my heart
M:C|
L:1/2
R:Pavan
B:Thoinot Arbeau : Orchesographie, 1589
Z:Steve Mansfield February 2001
K:Gdor
G2 | G^F | GA | B2 |
Bd | cB | BA | B2 |
G2 | G^F | GA | B2 |
Bd | cB | BA | B2 |
B2 | AA | GG | ^F2 |
D2 | E/F/ G | G^F | G2 |
B2 | AA | GG | ^F2 |
D2 | E/F/ G | G^F | G2 |
W:Belle qui tiens ma vie
W:Captive dans tes yeux
W:Qui m'as l'ame ravie
W:D'un souris  gracieux
W:Viens tot me secourir
W:Ou me faudra mourir
W:Viens tot me secourir
W:Ou me faudra mourir

